src/lib/packages/icons/src/assets/line/file-lock.svg

<svg xmlns="http://www.w3.org/2000/svg" width="24" height="24" fill="none"><path fill="currentColor" d="m20.53 8.47-6-6a.749.749 0 0 0-.53-.22H8C5.582 2.25 4.25 3.582 4.25 6v12c0 2.418 1.332 3.75 3.75 3.75h9c2.418 0 3.75-1.332 3.75-3.75V9a.747.747 0 0 0-.22-.53Zm-5.78-3.659 3.439 3.439H17c-1.577 0-2.25-.673-2.25-2.25V4.811ZM17 20.25H8c-1.577 0-2.25-.673-2.25-2.25V6c0-1.577.673-2.25 2.25-2.25h5.25V6c0 2.418 1.332 3.75 3.75 3.75h2.25V18c0 1.577-.673 2.25-2.25 2.25Zm-2.25-6.823V12.5c0-1.241-1.01-2.25-2.25-2.25a2.253 2.253 0 0 0-2.25 2.25v.927c-.629.277-1 .874-1 1.698v1.75c0 1.156.719 1.875 1.875 1.875h2.75c1.156 0 1.875-.719 1.875-1.875v-1.75c0-.825-.371-1.421-1-1.698ZM12.5 11.75a.75.75 0 0 1 .75.75v.75h-1.5v-.75a.75.75 0 0 1 .75-.75Zm1.75 5.125c0 .336-.038.375-.375.375h-2.75c-.337 0-.375-.039-.375-.375v-1.75c0-.279.037-.35.239-.367l.011.002c.007 0 .013-.004.021-.004.034-.002.061-.006.104-.006h2.75c.044 0 .07.004.104.006.007 0 .013.004.021.004l.011-.002c.202.017.239.088.239.367v1.75Z"/></svg>

<svg width="24" height="24" viewBox="0 0 24 24" fill="none" xmlns="http://www.w3.org/2000/svg">
<path d="M20.53 8.47L14.53 2.47C14.389 2.329 14.199 2.25 14 2.25H8C5.582 2.25 4.25 3.582 4.25 6V18C4.25 20.418 5.582 21.75 8 21.75H17C19.418 21.75 20.75 20.418 20.75 18V9C20.75 8.801 20.671 8.61 20.53 8.47ZM14.75 4.811L18.189 8.25H17C15.423 8.25 14.75 7.577 14.75 6V4.811ZM17 20.25H8C6.423 20.25 5.75 19.577 5.75 18V6C5.75 4.423 6.423 3.75 8 3.75H13.25V6C13.25 8.418 14.582 9.75 17 9.75H19.25V18C19.25 19.577 18.577 20.25 17 20.25ZM14.75 13.427V12.5C14.75 11.259 13.74 10.25 12.5 10.25C11.26 10.25 10.25 11.259 10.25 12.5V13.427C9.621 13.704 9.25 14.301 9.25 15.125V16.875C9.25 18.031 9.969 18.75 11.125 18.75H13.875C15.031 18.75 15.75 18.031 15.75 16.875V15.125C15.75 14.3 15.379 13.704 14.75 13.427ZM12.5 11.75C12.913 11.75 13.25 12.086 13.25 12.5V13.25H11.75V12.5C11.75 12.086 12.087 11.75 12.5 11.75ZM14.25 16.875C14.25 17.211 14.212 17.25 13.875 17.25H11.125C10.788 17.25 10.75 17.211 10.75 16.875V15.125C10.75 14.846 10.787 14.775 10.989 14.758C10.993 14.758 10.996 14.76 11 14.76C11.007 14.76 11.013 14.756 11.021 14.756C11.055 14.754 11.082 14.75 11.125 14.75H13.875C13.919 14.75 13.945 14.754 13.979 14.756C13.986 14.756 13.992 14.76 14 14.76C14.004 14.76 14.007 14.758 14.011 14.758C14.213 14.775 14.25 14.846 14.25 15.125V16.875Z" fill="currentColor"/>
</svg>
